X:6
T:Mazurka D&G (tinwhistle in D)
T:mz09144 (Hanny Christen)
%%MIDI program 72   % 111 /74 / 79=whistle
R:marzurka
M:3/4
L:1/8
K:D transpose=12
d2F2F2 | E>^D E>FG2 | B2"_=C"C2"_=C"C2 | D>"_=C"C D>FA2 | d2F2F2 | "Em/G"E>^D E>FG2 | B>A "_=C"C>B A"_=C"C | D2D2z2 :| 
|: "F#7"F2d3c | d>c B>^A B2 | "F#7"c2d3c | .c2!>!B4 | E2F3E | c>B A>^GA2 | B2c3B | A2^G2"_>Teil A"=G2 :| [K:G]
|: dB e3d | cEc3B | A2F3E | A2F3E | E2D>C"_=B,"B,2 | dB e3d | cE c3B | .A2.d3F | G2G2z2 :|
W:Parts: ABAC
% Aug. 19, 2016

